X:1
T:Lasciate hai morte
T:Lasciate hai morte
T:Girolamo Scotto
T:Source : Madrigali a tre voci---Venetia---G.Scotto---1541. Editor : André Vierendeels (14/06/16).
T:Notes : Original clefs : C1, C4, F4 Editorial accidentals above the staff Original note values have been halved Text by Francesco Petrarca "Tertii toni" 
T:©
T:©
T:©
T:©
T:©
T:©
C:Girolamo Scotto
Z:©
%%score [ 1 2 3 ]
L:1/8
Q:1/4=83
M:2/2
K:C
V:1 treble nm="Soprano" snm="S"
V:2 treble-8 nm="Tenor" snm="T"
V:3 bass nm="Bass" snm="B"
V:1
 z8 | z4 E4- | E4 E2 E2 | F4 E4 | A6 G2 | FGAB c2 B2- | BA A4 G2 | A3 G F2 E2 | D4 z2 A2 | %9
w: |La-|* scia- to'hai|mor- te|sen- za|so- * * * * le'il|_ _ mon- *||do, la-|
 G2 E2 G2 ^F2 | G6 E2 | F2 E4 D2 | E2 B4 c2- | c2 B3 A A2- | A2 G2 A4 | z2 E2 E2 E2 | G2 A4 G2 | %17
w: scia- to'hai mor- te|sen- za|so- le'il mon-|do, sen- za|_ so- lo'il mon-|* * do,|o- scu- ro'e|fred- * *|
 F4 E2 G2 | G2 G2 A4 | G2 c2 c2 c2 | A2 FG AB c2- | c2 B2 c2 A2- | A2 c4 A2 | _B2 A3 G G2- | %24
w: * do, o-|scu- ro'e fred|do, A- mor cie-|co, et _ in- * er-|* * me, leg-|* gia- dri-|a ig- * nu-|
 G2 F2 G2 A2- | A2 GF E2 E2- | E2 E2 G3 A | B2 c3 B A2- | A2 G2 A4- | A2 G4 FE | D2 A2 G2 F2 | %31
w: |* * * da le|_ bel- lez- ze'in-|fir- * * *|* * me,|_ me _ _|_ scon- so- la-|
 D2 B2 c4- | c2 c2 c4 | c4 z4 | z2 A2 G2 D2 | F3 G A2 DE | FG A4 G2 | A3 B c2 B2 | c2 A2 G2 c2- | %39
w: to, me scon|_ so- la-|to|et a me|gra- * * * *|* * ve pon-||* * do, cor-|
 c2 B3 A A2- | A2 G2 A4- | A2 B2 c4- | c4 z2 G2 | G2 G2 D2 E2 | F4 D3 E | FG A4 G2 | A6 B2 | c8 | %48
w: * te- * sia'in|_ _ ban-|* * do,|_ et|ho- nes- ta- e'in|fon- * *|||do,|
 z2 G2 G2 G2 | D2 E2 F4 | D3 E FG A2- |"^#" A2 G2 A4- | A8- | A8 |] %54
w: et ho- nes-|ta- te'in fon-||* * do.|_||
V:2
 E4 E2 E2 | F4 E4 | A6 G2 | FGAB c2 A2- | AB ^c2 d2 e2 | d4 e3 d | ^c2 d2 B4 | A6 A2 | %8
w: La- scia- to'hai|mor- te|sen- za|so- * * * * lo'il|_ _ _ _ _|* mon- *||do, la-|
 F2 G2 A2 c2 | B2 GA Bc d2 | e2 c2 B2 c2- | c2 B2 A4 | B4 ^G2 A2- | A2 G2 c2 A2 | B4 A2 c2 | %15
w: scia- to'hai mor- te|sen- za _ _ _ _|_ so- lo'il mon-||do, sen- za|_ so- lo'il mon-|* do, o-|
 B2 B2 A2 c2- | c2 AB cd e2- | e2 d2 c2 B2 | c2 B2 ABcd | e2 f2 e2 A2 | A2 A2 f2 e2 | d4 c4- | c8 | %23
w: scu- ro'e fred- *||||* * do, A-|mor cie- co, et|in- er|_|
 d3 c B2 c2 | A4 G2 c2- | c2 B2 c4 | G6 c2 | d2 e2 A4 | B4 A2 E2 | E2 E2 G3 A | B2 c3 B A2- | %31
w: me, leg- gia- dri-|a ig- nu-|* * da,|le bel-|lez- ze'in- firm-|* me, me|scon- so- la- *||
 A2 G2 A3 G | F2 E3 F G2- | G2 A2 G4 | F4 E2 B2 | A2 d2 c2 B2 | c2 f4 ed | e2 f3 e e2- | %38
w: * * to _|_ et a me|_ gra- ve|pon- do, cor-|te- sia'in ban- *|||
 ed/c/ d2 e4- | e2 e2 d3 c | B4 A4 | z2 d2 e2 e2 | f2 e2 ^c2 d2 |"^-natural" e2 B2 B2 c2 | A4 B4 | %45
w: * * * * do,|_ in ban- *|* do,|et ho- nes-|ta- te'in fon- *|do, et ho- nes-|ta- te'in|
 c2 A2 B4 | A4 z2 d2 | e2 e2 f2 e2 | ^c2 d2 e2 B2 |"^-natural" B2 c2 A4 | B4 c2 A2 | B4 A4- | A8- | %53
w: fon- * *|do, et|ho- nes- ta- te'in|fon- * do, in|ho- nes- ta-|te'in fon- *|* do.|_|
 A8 |] %54
w: |
V:3
 z8 | z8 | z8 | z8 | z8 | z8 | z8 | A,,4 A,,2 A,,2 | _B,,4 A,,4 | E,6 D,2 | C,D,E,F, G,2 A,2- | %11
w: |||||||La- scia- to'hai|mor- te|sen- za|so- * * * * lo'il|
 A,2 G,2 A,2 F,2 | E,6 A,,B,, | C,D, E,2 F,4 | E,4 A,,2 A,2- | A,2 G,2 A,4 | z8 | z4 E,4 | %18
w: _ mon- * *|do, sen- *|* * * za|so- lo'il mon-|* * do,||o-|
 E,2 E,2 F,4 | E,2 A,,2 A,,2 A,,2 | D,6 C,2 | G,4 C,2 F,2- | F,2 E,2 F,4 | D,4 E,2 C,2 | %24
w: scu- ro'e fred-|do, A- mor cie-|co, et|in- er- me,|_ leg- gia-|dri- a ig-|
 D,4 G,2 F,2 | D,4 C,2 A,,2 | C,6 C,2 | B,,2 A,,2 F,4 | E,4 A,,4- | A,,2 C,2 C,2 C,2 | %30
w: nu- da, ig-|nu- * da,|le bel-|lez- ze'in- firm-|me, et|_ a me scon-|
 B,,2 A,,2 C,2 D,2 | B,,4 A,,2 z A,, | A,,2 A,,2 C,3 D, | E,2 F,3 E, E,2- | E,2 D,2 E,2 G,2 | %35
w: so- la- * *|* to et|a me gra- *|* * ve pon-|* * do, cor-|
 F,2 D,2 F,2 G,2 |"^b" A,2 F,2 B,4 | A,6 G,2 | F,4 E,2 A,,B,, | C,D,E,F, G,2 D,2 | E,4 A,,2 D,2 | %41
w: te- sia'in ban- *|||* do in _|baan- * * * do, in|ban- do, et|
 D,2 D,2 C,2 A,,2 | A,6 G,F, | E,3 F, G,2 C,2 | D,4 G,4 | F,4 E,4 | A,,2 D,2 D,2 D,2 | %47
w: ho- nes- ta- te'in|fon- * *||||do, et ho- nes-|
 C,2 A,,2 A,4- | A,2 G,F, E,3 F, | G,2 C,2 D,4 | G,4 F,4 | E,4 A,,2 D,2- | D,2 C,2 D,4 | A,,8 |] %54
w: ta- te'in fon-||||* do, in|_ _ fon-|do.|

